!!!SOCIAL_FUNCTION:	war songs
!!!PDT:	1909
!!!OTL: No_161_Scalp_Song.krn
!!!REG: Great_Lakes
!!!LANG: Non-Tone
!!!LING_GROUP: Algonquin
**kern
*staff1
=1-
*clefF4
*k[b-e-a-d-]
*M3/4
[8c\L
16.c\L]
32B-\JJk
8B-\L
8B-\J
8A-\L
8A-\J
=2
[8c\L
16.c\L]
32B-\JJk
8c\L
8c\J
8B-\L
8B-\J
=3
[8c\L
16.c\L]
32B-\JJk
8B-\L
8B-\J
8A-\L
8A-\J
=4
[8B-\L
16.B-\L]
32A-\JJk
4B-\
8A-\L
8B-\J
=5
[8B-\L
16.B-\L]
32A-\JJk
32A-\LLK
[16.F\J
8F\J]
8C/L
8C/J
=6
8.A-\L
16F\Jk
8A-\L
8A-\J
8F\L
8F\J
=7||
*M2/4
8.A-\L
16F\Jk
8F\L
8F\J
=8
8C/L
8C/J
8C/L
8C/J
=9
4C/
8A-\L
8A-\J
=10||
*M3/4
[8B-\L
16.B-\L]
32A-\JJk
8B-\L
8B-\J
8A-\L
8B-\J
=11
[8B-\L
16.B-\L]
32A-\JJk
32A-\LLK
16.F\J
8F\J
8C/L
8C/J
=12
[8A-\L
16.A-\L]
32F\JJk
8A-\L
8A-\J
8F\L
8F\J
=13||
*M2/4
[8A-\L
16.A-\L]
32F\JJk
8F\L
8F\J
=14
8C/L
8C/J
8C/L
8C/J
=15
2C/
==
*-
